X:45
T:Nicholas McInnis
R:march
C:Brenda Stubbert
O:Cape Breton Island
S:http://www.cranfordpub.com
D:In Jig Time, Music All Around, 2003
Z:psc, (re-formatted,updated 9/19/04)
N:http://www.cranfordpub.com/stubbert
H:                                                        copyrights Stubbert Music, SOCAN
L:1/8
Q:244
M:C|
K:Edor
E<F|G>FE<D B,<EG>A|B>ed<f Te>dB>c|d>BA<d F<DF<A|d>BA>F B>AF<D|
G>FE<D B,<EG>A|B>ed<f Te>dB>c|d>BA<d TB>AF<D|E4 E2:|
|:zf|g>fe>d B>AB<d|e>gf>d Te>dB>c|d>BA<d F<DF<A|[1d>cd>e Tf>ed>f|
g>fe>d B>AB<d|e>gf>d Te>dB>c|d>BA<d TB>AF<D|E4 E2:|
[2 d>BA>F B>AF<D|G>FE<D B,<EG>A|B>ed<f Te>dB>c|d>BA<d TB>AF<D|E4 E2|]
